public/img/removal/remove-status-complete.svg

<svg fill="none" height="24" viewBox="0 0 24 24" width="24" xmlns="http://www.w3.org/2000/svg"><g fill="#fff"><path clip-rule="evenodd" d="m12 24c6.6274 0 12-5.3726 12-12 0-6.62742-5.3726-12-12-12-6.62742 0-12 5.37258-12 12 0 6.6274 5.37258 12 12 12zm0-2.4c5.3019 0 9.6-4.2981 9.6-9.6 0-5.30193-4.2981-9.6-9.6-9.6-5.30193 0-9.6 4.29807-9.6 9.6 0 5.3019 4.29807 9.6 9.6 9.6z" fill-rule="evenodd"/><path d="m17.4955 7.78791-7.2747 7.27499-3.11213-3.1102c-.45358-.4533-1.1887-.4531-1.64213.0003-.45361.4536-.45353 1.1891.00018 1.6426l4.18362 4.1817c.30183.3017.79086.3023 1.09336.0013l8.39-8.34842c.4549-.45262.4558-1.18855.002-1.64229-.4529-.45295-1.1873-.45295-1.6402.00002z"/></g></svg>

<svg width="24" height="24" viewBox="0 0 24 24" fill="none" xmlns="http://www.w3.org/2000/svg">
<title>A checkmark in a circle</title>
<path fill-rule="evenodd" clip-rule="evenodd" d="M12 24C18.6274 24 24 18.6274 24 12C24 5.37258 18.6274 0 12 0C5.37258 0 0 5.37258 0 12C0 18.6274 5.37258 24 12 24ZM12 21.6C17.3019 21.6 21.6 17.3019 21.6 12C21.6 6.69807 17.3019 2.4 12 2.4C6.69807 2.4 2.4 6.69807 2.4 12C2.4 17.3019 6.69807 21.6 12 21.6Z" fill="#fff"/>
<path d="M17.4955 7.78791L10.2208 15.0629L7.10867 11.9527C6.65509 11.4994 5.91997 11.4996 5.46654 11.953C5.01293 12.4066 5.01301 13.1421 5.46672 13.5956L9.65034 17.7773C9.95217 18.079 10.4412 18.0796 10.7437 17.7786L19.1337 9.43018C19.5886 8.97756 19.5895 8.24163 19.1357 7.78789C18.6828 7.33494 17.9484 7.33494 17.4955 7.78791Z" fill="#fff"/>
</svg>
